_includes/icons/color-play-button.svg

<svg fill="#666" height="50" viewBox="0 0 48 48" width="50" xmlns="http://www.w3.org/2000/svg"><path d="m43.199219 33.898438c-.398438 2.101562-2.097656 3.703125-4.199219 4-3.300781.5-8.800781 1.101562-15 1.101562-6.101562 0-11.601562-.601562-15-1.101562-2.101562-.296875-3.800781-1.898438-4.199219-4-.402343-2.296875-.800781-5.699219-.800781-9.898438s.398438-7.601562.800781-9.898437c.398438-2.101563 2.097657-3.703125 4.199219-4 3.300781-.5 8.800781-1.101563 15-1.101563s11.601563.601563 15 1.101563c2.101563.296875 3.800781 1.898437 4.199219 4 .402344 2.296875.902344 5.699218.902344 9.898437-.101563 4.199219-.5 7.601563-.902344 9.898438z" fill="#ff3d00"/><path d="m20 31v-14l12 7z" fill="#fff"/></svg>

<svg xmlns="http://www.w3.org/2000/svg" viewBox="0 0 48 48" width="50" height="50" fill="#666"><path d="M 43.199219 33.898438 C 42.800781 36 41.101563 37.601563 39 37.898438 C 35.699219 38.398438 30.199219 39 24 39 C 17.898438 39 12.398438 38.398438 9 37.898438 C 6.898438 37.601563 5.199219 36 4.800781 33.898438 C 4.398438 31.601563 4 28.199219 4 24 C 4 19.800781 4.398438 16.398438 4.800781 14.101563 C 5.199219 12 6.898438 10.398438 9 10.101563 C 12.300781 9.601563 17.800781 9 24 9 C 30.199219 9 35.601563 9.601563 39 10.101563 C 41.101563 10.398438 42.800781 12 43.199219 14.101563 C 43.601563 16.398438 44.101563 19.800781 44.101563 24 C 44 28.199219 43.601563 31.601563 43.199219 33.898438 Z" fill="#ff3d00"/><path d="M 20 31 L 20 17 L 32 24 Z" fill="#fff"/></svg>
